X:1
T: Devil in Dublin
C:
R:Jig
Q:180
K:G
M:6/8
L:1/16
|:(3DEF|G4B2 d4B2|e4c2 A6|B2d2B2 G2B2G2|F2A2F2 D4(3DEF|
G4B2 d4B2|e4c2 A2B2c2|d2B2G2 D2G2F2|G6 G4:|
|:z2|A2G2A2 F2G2A2|B2A2B2 G2A2B2|c2B2c2 A2B2c2|d2c2d2 B2c2d2|
e2d2e2 c2d2e2|d2e2f2 g2f2e2|d2B2G2 D2G2F2|G6 G4:|
